svgs/solid/play-pause.svg

<svg xmlns="http://www.w3.org/2000/svg" viewBox="0 0 512 512"><!-- Font Awesome Pro 6.0.0-alpha2 by @fontawesome - https://fontawesome.com License - https://fontawesome.com/license (Commercial License) --><path d="M52.508 71.406C31.879 54.283 0 68.656 0 96.027V415.973C0 443.344 31.879 457.715 52.508 440.594L244.531 280.621C259.781 267.748 259.781 244.252 244.531 231.379L52.508 71.406ZM352 64H351.969C334.297 64 319.969 78.326 319.969 96V416C319.969 433.672 334.297 448 351.969 448H352C369.674 448 384 433.672 384 416V96C384 78.326 369.674 64 352 64ZM480 64H479.969C462.297 64 447.969 78.326 447.969 96V416C447.969 433.672 462.297 448 479.969 448H480C497.674 448 512 433.672 512 416V96C512 78.326 497.674 64 480 64Z"/></svg>

<svg xmlns="http://www.w3.org/2000/svg" viewBox="0 0 512 512"><!--! Font Awesome Pro 6.3.0 by @fontawesome - https://fontawesome.com License - https://fontawesome.com/license (Commercial License) Copyright 2023 Fonticons, Inc. --><path d="M52.5 71.4c-9.5-7.9-22.8-9.7-34.1-4.4S0 83.6 0 96V416c0 12.4 7.2 23.7 18.4 29s24.5 3.6 34.1-4.4l192-160c7.3-6.1 11.5-15.1 11.5-24.6s-4.2-18.5-11.5-24.6l-192-160zM384 96c0-17.7-14.3-32-32-32s-32 14.3-32 32V416c0 17.7 14.3 32 32 32s32-14.3 32-32V96zm128 0c0-17.7-14.3-32-32-32s-32 14.3-32 32V416c0 17.7 14.3 32 32 32s32-14.3 32-32V96z"/></svg>
